X: 32056
T: Peig Sa Susa
R: jig
M: 6/8
K: Dmixolydian
|F3 AGG|AFD GED|DED c2A|ded cAG|
F3 AGG|AFD GED|DED GED|1 DED D2E:|2 DED D2B||
c3 cAd-|dcA GED|DED c2A|ded cAB|
cdc cAd-|dcA GED|DED GED|DED D2B|
c3 cAd-|dcA GED|DED c2A|ded cAB|
cBc edd|eBA GED|DED c2A|ded cAG|

